X:1
T:O Serve the Lord
T:O Serve the Lord
T:Ira David Sankey
T:Frances Jane (Fanny) Crosby, 1895
T:Public Domain, Courtesy of the Cyber Hymnal™
T:Public Domain, Courtesy of the Cyber Hymnal™
C:Ira David Sankey
Z:Public Domain,
Z:Courtesy of the Cyber Hymnal™
%%score ( 1 2 ) ( 3 4 )
L:1/8
Q:1/4=112
M:6/8
K:G
V:1 treble 
V:2 treble 
V:3 bass 
V:4 bass 
V:1
 [B,D] | [B,D]2 [B,D] ([B,D][DG])[FA] | [GB]3 [DG]2 [DB] | [Fd]2 [Fd] [Fd]2 [FA] | %4
w: 1.~“O|serve the Lord * with|glad- ness,” And|come be- fore His|
w: 2.~“O|serve the Lord * with|glad- ness,” And|glad ho- san- nas|
w: 3.~“O|serve the Lord * with|glad- ness,” His|love to all pro-|
 [GB]3- [GB]2 [B,D] | [B,D]2 [B,D] ([B,D][DG])[FA] | [GB]3 [DG]2 [DB] | [DA]2 [EG] [DF]2 [^CE] | %8
w: throne; * He|is the great * Cre-|at- or, And|He is God a-|
w: bring, * To|Him the Sov- * ereign|Rul- er, The|un- i- vers- al|
w: claim; * Ex-|alt Him in * the|high- est; And|spread a- broad His|
 D3- D2 D | (DF)[FA] [Fc]2 [Fe] | [Gd]3 [DB]2 D | (DF)[FA] [Fc]2 [Fe] | [Gd]3- [Gd]2 [GB] | %13
w: lone; * The|heavens * de- clare His|glo- ry, The|earth * His power dis-|plays; * While|
w: King; * For-|ev- * er through the|ag- es His|truth * un- chang- ing|stands; * Let|
w: fame; * All|ma- * jes- ty, do-|min- ion, All|power * and glo- ry|be * To|
 [GB]2 [GB] ([GB][=Fd])[Ec] | [DB]3 [DG]2 D | ([CE][DF])[DG] [CG]2 [CF] | [B,G]3- [B,G]2 || %17
w: mill- ions with- * out|num- ber To|Him * glad an- thems|raise. *|
w: all the na- * tions|fear Him, And|rev- * erence His com-|mands. *|
w: Him who reigns * in|tri- umph, Through|all * e- ter- ni-|ty. *|
"^Refrain" [Gd] | [Fd]2 [FA] [GB]2 [Ac] | [Ac]3 [GB]2 [Ge] | [^Ge]2 [GB] [Ac]2 [Bd] | %21
w: ||||
w: “O|serve the Lord with|glad- ness,” And|come be- fore His|
w: ||||
 [Ac]3- [Ac]2 [Ac] | [Ac]2 [FA] [GB]2 [Ac] | d3 G2 [Gc] | [GB]2 [DG] [FA]2 [DG] | [DG]3- [DG]2 |] %26
w: |||||
w: throne; * He|is our great Re-|deem- er, And|He is God a-|lone. *|
w: |||||
V:2
 x | x6 | x6 | x6 | x6 | x6 | x6 | x6 | D3- D2 D | D2 x4 | x5 D | D2 x4 | x6 | x6 | x5 D | x6 | %16
 x5 || x | x6 | x6 | x6 | x6 | x6 | (B2 G) G2 x | x6 | x5 |] %26
V:3
 [G,,G,] | [G,,G,]2 [G,,G,] (G,B,)[D,D] | [G,D]3 [G,B,]2 G, | [D,A,]2 [D,A,] [D,A,]2 [D,D] | %4
 [G,D]3- [G,D]2 G, | G,2 G, (G,B,)[D,D] | [G,D]3 [G,B,]2 [G,D] | [F,D]2 [G,B,] A,2 [A,,G,] | %8
 [D,F,]3- [D,F,]2 [D,F,] | (F,A,)[D,D] [D,A,]2 [D,C] | [G,B,]3 G,2 [G,B,] | %11
 A,2 [D,D] [D,A,]2 [D,C] | [G,B,]3- [G,B,]2 [G,D] | [G,D]2 [G,D] (DB,)G, | G,3 [G,B,]2 [B,,G,] | %15
 (G,A,)[B,,G,] [D,A,]2 [D,A,] | [G,,G,]3- [G,,G,]2 || [G,B,] | [D,A,]2 [D,D] [D,D]2 [D,D] | %19
 [G,D]3 [G,D]2 [G,B,] | [E,B,]2 [E,E] [E,E]2 [E,E] | [A,E]3- [A,E]2 [D,D] | %22
 [D,D]2 [CD] [B,D]2 [A,D] | (D2 B,) [E,B,]2 [A,,C] | [D,D]2 [D,B,] [D,C]2 [G,,B,] | %25
 [G,,B,]3- [G,,B,]2 |] %26
V:4
 x | x3 G,,2 x | x5 G, | x6 | x5 G, | G,2 G, G,2 x | x6 | x3 A,2 x | x6 | D,2 x4 | x3 G,2 x | %11
 (F,D,) x4 | x6 | x3 G,2 G, | G,3 x3 | C,2 x4 | x5 || x | x6 | x6 | x6 | x6 | x6 | G,3 x3 | x6 | %25
 x5 |] %26

